assets/Person swimming/Light/Flat/person_swimming_flat_light.svg

<svg width="32" height="32" viewBox="0 0 32 32" fill="none" xmlns="http://www.w3.org/2000/svg">
<path d="M2 13C3.11 11.89 4.9 11.89 6 13C7.1 14.11 8.9 14.11 10 13C11.1 11.89 12.9 11.89 14 13C15.1 14.11 16.9 14.11 18 13C19.1 11.89 20.9 11.89 22 13C23.1 14.11 24.9 14.11 26 13C27.1 11.89 28.9 11.89 30 13V21.96H2V13Z" fill="#26C9FC"/>
<path d="M13.5399 23.1H29.9299C29.9299 20.5 28.7099 18.18 26.8199 16.68L22.6299 7.46C21.3899 4.74 18.6899 3 15.7099 3H9.89993H8.78993C7.97993 3.05 7.33993 3.34 6.75993 3.91L5.11992 5.54C4.82992 5.83 4.80992 6.29 5.06992 6.6L4.92992 6.73C4.61992 7.04 4.59992 7.55 4.89992 7.86C5.19993 8.18 5.70993 8.19 6.02993 7.88H6.03992C6.07992 7.95 6.11992 8.02 6.17992 8.08C6.48992 8.39 6.98993 8.39 7.29993 8.09L7.84992 7.55C8.19992 7.18 8.67992 6.99 9.17992 6.99L9.89993 7H15.2399C16.9399 7 18.4799 7.99 19.1799 9.54L21.6199 14.91C17.1499 14.97 13.5399 18.61 13.5399 23.1Z" fill="#F4C6AD"/>
<path d="M2 20C3.11 18.89 4.9 18.89 6 20C7.1 21.11 8.9 21.11 10 20C11.1 18.89 12.9 18.89 14 20C15.1 21.11 16.9 21.11 18 20C19.1 18.89 20.9 18.89 22 20C23.1 21.11 24.9 21.11 26 20C27.1 18.89 28.9 18.89 30 20V29H2V20Z" fill="#0084CE"/>
<path d="M18.9701 11.95C18.9701 12.679 18.3791 13.27 17.6501 13.27C16.9211 13.27 16.3301 12.679 16.3301 11.95C16.3301 11.221 16.9211 10.63 17.6501 10.63C18.3791 10.63 18.9701 11.221 18.9701 11.95Z" fill="#F4C6AD"/>
<path d="M13.5099 17.42C13.5099 18.149 12.9189 18.74 12.1899 18.74C11.4609 18.74 10.8699 18.149 10.8699 17.42C10.8699 16.691 11.4609 16.1 12.1899 16.1C12.9189 16.1 13.5099 16.691 13.5099 17.42Z" fill="#F4C6AD"/>
<path d="M11.45 9.93003L10.19 11.18C8.77999 12.59 8.89999 14.82 10.52 16.12L13.96 19.14C15.21 20.09 16.96 19.97 18.07 18.87L18.6 18.34L19.13 17.81C20.24 16.7 20.36 14.94 19.4 13.7L16.37 10.27C15.18 8.67003 12.85 8.52003 11.45 9.93003Z" fill="#FFD7C2"/>
<path d="M16.4401 10.2901C16.1877 10.049 15.8567 9.93993 15.5353 9.96471L16.0904 9.40967C16.2177 9.46554 16.3354 9.53957 16.4401 9.64012C16.6509 9.85099 16.8 9.99324 16.9236 10.1111C17.0109 10.1944 17.0855 10.2656 17.1601 10.3401L17.4501 10.6301C17.2701 10.6601 17.1001 10.7201 16.9501 10.8201L16.9401 10.8301C16.9351 10.8301 16.9326 10.8326 16.9301 10.8351C16.9276 10.8376 16.9251 10.8401 16.9201 10.8401L16.4401 10.2901Z" fill="#212121"/>
<path d="M9.92006 16.1701C9.81597 16.066 9.73492 15.9521 9.66968 15.8304L10.108 15.392C10.2375 15.6741 10.4182 15.9382 10.6501 16.1701L11.1201 16.6401C11.0001 16.8001 10.9201 16.9901 10.8901 17.1901L10.6001 16.9001C10.5353 16.8354 10.4866 16.7794 10.4262 16.71C10.3279 16.5971 10.1988 16.4488 9.92006 16.1701Z" fill="#212121"/>
<path d="M19.4099 13.68C19.6099 13.94 19.7599 14.22 19.8599 14.51C20.0999 13.88 19.9499 13.16 19.4699 12.68L18.9499 12.16C18.9099 12.4 18.8099 12.63 18.6399 12.82L19.4099 13.68Z" fill="#212121"/>
<path d="M12.3999 18.71C12.6499 18.67 12.8899 18.56 13.0899 18.37L13.9599 19.14C14.2199 19.34 14.5099 19.49 14.8099 19.6C14.1699 19.87 13.4199 19.73 12.9199 19.23L12.3999 18.71Z" fill="#212121"/>
<path d="M16.9499 17.48C17.3972 17.48 17.7599 17.1173 17.7599 16.67C17.7599 16.2226 17.3972 15.86 16.9499 15.86C16.5025 15.86 16.1399 16.2226 16.1399 16.67C16.1399 17.1173 16.5025 17.48 16.9499 17.48Z" fill="#990838"/>
<path d="M14.56 14.73L15.22 15.98C15.36 16.24 15.7 16.29 15.9 16.08L16.34 15.64C16.54 15.44 16.49 15.09 16.24 14.96L14.99 14.3C14.71 14.16 14.41 14.46 14.56 14.73Z" fill="#E5AF93"/>
<path d="M17.66 10.61L17 10.16L16.24 11.27C15.89 11.23 15.53 11.34 15.27 11.6L14.63 12.24C14.27 12.6 14.2 13.14 14.4 13.57L13.85 14.12C13.41 13.92 12.88 13.99 12.52 14.35L11.88 14.99C11.61 15.26 11.51 15.62 11.55 15.97L10.42 16.74L10.87 17.4L11.92 16.69C12.38 17.12 13.11 17.11 13.56 16.66L14.2 16.02C14.56 15.66 14.63 15.12 14.43 14.69L14.98 14.14C15.42 14.34 15.95 14.27 16.31 13.91L16.95 13.27C17.4 12.82 17.41 12.09 16.97 11.63L17.66 10.61Z" fill="#433B6B"/>
<path d="M16.1001 13.5501L16.5501 13.1001C16.8601 12.8001 16.8601 12.2901 16.5501 11.9801C16.2401 11.6701 15.7401 11.6701 15.4301 11.9801L14.9801 12.4301C14.6701 12.7401 14.6701 13.2401 14.9801 13.5501C15.2901 13.8601 15.7901 13.8601 16.1001 13.5501Z" fill="#00A6ED"/>
<path d="M13.3901 16.26L13.8401 15.81C14.1501 15.51 14.1501 15.01 13.8401 14.69C13.5301 14.38 13.0301 14.38 12.7201 14.69L12.2701 15.14C11.9601 15.45 11.9601 15.95 12.2701 16.26C12.5801 16.57 13.0801 16.57 13.3901 16.26Z" fill="#00A6ED"/>
<path d="M9.91999 16.17C8.11999 14.73 7.98999 12.25 9.54999 10.68L10.94 9.29003C12.5 7.73003 15.09 7.90003 16.43 9.66003C16.43 9.66003 16.18 9.50003 12.96 12.72C9.69999 15.98 9.91999 16.17 9.91999 16.17Z" fill="#F92F60"/>
</svg>

<svg xmlns="http://www.w3.org/2000/svg" width="32" height="32" fill="none"><path fill="#26C9FC" d="M2 13a2.819 2.819 0 0 1 4 0c1.1 1.11 2.9 1.11 4 0s2.9-1.11 4 0 2.9 1.11 4 0 2.9-1.11 4 0 2.9 1.11 4 0 2.9-1.11 4 0v8.96H2V13Z"/><path fill="#F4C6AD" d="M13.54 23.1h16.39c0-2.6-1.22-4.92-3.11-6.42l-4.19-9.22A7.602 7.602 0 0 0 15.71 3H8.79c-.81.05-1.45.34-2.03.91L5.12 5.54c-.29.29-.31.75-.05 1.06l-.14.13c-.31.31-.33.82-.03 1.13.3.32.81.33 1.13.02h.01c.04.07.08.14.14.2a.8.8 0 0 0 1.12.01l.55-.54c.35-.37.83-.56 1.33-.56L9.9 7h5.34c1.7 0 3.24.99 3.94 2.54l2.44 5.37a8.19 8.19 0 0 0-8.08 8.19Z"/><path fill="#0084CE" d="M2 20a2.819 2.819 0 0 1 4 0c1.1 1.11 2.9 1.11 4 0s2.9-1.11 4 0 2.9 1.11 4 0 2.9-1.11 4 0 2.9 1.11 4 0 2.9-1.11 4 0v9H2v-9Z"/><path fill="#F4C6AD" d="M18.97 11.95a1.32 1.32 0 1 1-2.64 0 1.32 1.32 0 0 1 2.64 0ZM13.51 17.42a1.32 1.32 0 1 1-2.64 0 1.32 1.32 0 0 1 2.64 0Z"/><path fill="#FFD7C2" d="m11.45 9.93-1.26 1.25c-1.41 1.41-1.29 3.64.33 4.94l3.44 3.02c1.25.95 3 .83 4.11-.27l.53-.53.53-.53a3.115 3.115 0 0 0 .27-4.11l-3.03-3.43c-1.19-1.6-3.52-1.75-4.92-.34Z"/><path fill="#212121" d="M16.44 10.29a1.178 1.178 0 0 0-.905-.325l.555-.555c.128.056.245.13.35.23.21.211.36.353.484.471.087.083.162.155.236.23l.29.29c-.18.03-.35.09-.5.19l-.01.01c-.005 0-.007.002-.01.004-.002.003-.005.005-.01.005l-.48-.55ZM9.92 16.17a1.43 1.43 0 0 1-.25-.34l.438-.438c.13.282.31.546.542.778l.47.47c-.12.16-.2.35-.23.55l-.29-.29c-.065-.065-.113-.12-.174-.19-.098-.113-.227-.261-.506-.54ZM19.41 13.68c.2.26.35.54.45.83.24-.63.09-1.35-.39-1.83l-.52-.52c-.04.24-.14.47-.31.66l.77.86ZM12.4 18.71c.25-.04.49-.15.69-.34l.87.77c.26.2.55.35.85.46-.64.27-1.39.13-1.89-.37l-.52-.52Z"/><path fill="#990838" d="M16.95 17.48a.81.81 0 1 0 0-1.62.81.81 0 0 0 0 1.62Z"/><path fill="#E5AF93" d="m14.56 14.73.66 1.25c.14.26.48.31.68.1l.44-.44c.2-.2.15-.55-.1-.68l-1.25-.66c-.28-.14-.58.16-.43.43Z"/><path fill="#433B6B" d="m17.66 10.61-.66-.45-.76 1.11c-.35-.04-.71.07-.97.33l-.64.64c-.36.36-.43.9-.23 1.33l-.55.55c-.44-.2-.97-.13-1.33.23l-.64.64c-.27.27-.37.63-.33.98l-1.13.77.45.66 1.05-.71c.46.43 1.19.42 1.64-.03l.64-.64c.36-.36.43-.9.23-1.33l.55-.55c.44.2.97.13 1.33-.23l.64-.64c.45-.45.46-1.18.02-1.64l.69-1.02Z"/><path fill="#00A6ED" d="m16.1 13.55.45-.45a.79.79 0 0 0 0-1.12.79.79 0 0 0-1.12 0l-.45.45a.79.79 0 0 0 0 1.12c.31.31.81.31 1.12 0ZM13.39 16.26l.45-.45c.31-.3.31-.8 0-1.12a.79.79 0 0 0-1.12 0l-.45.45a.79.79 0 0 0 0 1.12c.31.31.81.31 1.12 0Z"/><path fill="#F92F60" d="M9.92 16.17c-1.8-1.44-1.93-3.92-.37-5.49l1.39-1.39a3.657 3.657 0 0 1 5.49.37s-.25-.16-3.47 3.06c-3.26 3.26-3.04 3.45-3.04 3.45Z"/></svg>
